!!!COM: Bach, Johann Sebastian
!!!OTL: 224. Das walt' Gott Vater und Gott Sohn
!!!ONM: No. 224
!!!OCL: Erk
!!!SCA: BWV 290
!!!YOE: Riemenschneider, Albert
!!!OPR: 371 Harmonized Chorales and 69 Chorale Melodies with Figured Bass
!!!OPT: Bach Chorale Harmonizations
**harm	**root	**kern	**kern	**kern	**kern
!	!	!bass	!tenor	!alto	!sprno
*Iorgan	*Iorgan	*Iorgan	*Iorgan	*Iorgan	*Iorgan
*k[b-e-a-]	*k[b-e-a-]	*k[b-e-a-]	*k[b-e-a-]	*k[b-e-a-]	*k[b-e-a-]
*E-:	*E-:	*E-:	*E-:	*E-:	*E-:
*met(c)	*met(c)	*met(c)	*met(c)	*met(c)	*met(c)
*M4/4	*M4/4	*M4/4	*M4/4	*M4/4	*M4/4
*MM60	*MM60	*MM60	*MM60	*MM60	*MM60
I	4FF	4E-	4G	4B-	4e-
=1	=1	=1	=1	=1	=1
I	4FF	4E-	4B-	4e-	4g
Ib	4FF	8GG	4B-	4e-	4b-
.	.	8AA-	.	.	.
V	4CC	4BB-	4F	4d	4b-
Vb/vi	4AA	4BB	4G	[4d	4g
=2	=2	=2	=2	=2	=2
vi	4DD	4C	4G	8d]	4e-
.	.	.	.	8c	.
Vb	4CC	4D	4F	4B-	4f
I;	4FF;	4E-;	4E-;	4B-;	4g;
I	4FF	4E-	4G	4B-	4e-
=3	=3	=3	=3	=3	=3
I	4FF	4.E-	4G	4e-	4b-
Vb	4CC	.	4B-	4f	4b-
.	.	8D	.	.	.
vi	4DD	4C	4e-	8g	4cc
.	.	.	.	8a	.
iii	4AA	8G	4d	4b-	4dd
.	.	8F	.	.	.
=4	=4	=4	=4	=4	=4
I	4FF	4E-	4g	4.b-	8ee-
.	.	.	.	.	8dd
V/V	4GG	4F	8c	.	4cc
.	.	.	16f	8a	.
.	.	.	16e-	.	.
V;	4CC;	4BB-;	4d;	4f;	4b-;
Vb	4CC	4D	4B-	[4f	4b-
=5	=5	=5	=5	=5	=5
!!linebreak: 2
I	4FF	4E-	4B-	8f]	4g
.	.	.	.	16e-	.
.	.	.	.	16d	.
Ib	4FF	8GG	[4B-	4e-	4b-
.	.	8EE-	.	.	.
IV	4BB-	4AA-	8B-]	4e-	4cc
.	.	.	[8A-	.	.
I	4FF	[4E-	8A-]	4e-	4b-
.	.	.	8G	.	.
=6	=6	=6	=6	=6	=6
V7b	4CC	8E-]	4F	8f	4a-
.	.	8D	.	8B-	.
I	4FF	4E-	8.G	8B-	4g
.	.	.	.	[8e-	.
.	.	.	16A-	.	.
V;	4CC;	4BB-;	4B-;	8e-]	4f;
.	.	.	.	8d;	.
Vb	4CC	4D	4B-	4f	4b-
=7	=7	=7	=7	=7	=7
I	4FF	4E-	4B-	4e-	8g
.	.	.	.	.	8a-
Ib	4FF	4GG	4B-	4e-	4b-
IV	4BB-	4AA-	4c	4e-	4a-
V7	4CC	4BB-	8B-	4d	8g
.	.	.	8A-	.	8f
=8	=8	=8	=8	=8	=8
vi	4DD	4C	8G	16c	4e-
.	.	.	.	16d	.
.	.	.	16F	4e-	.
.	.	.	16E-	.	.
V	4CC	4BB-	8.B-	.	4f
.	.	.	.	8d	.
.	.	.	16A-	.	.
I;	4FF;	4E-;	4G;	4B-;	4e-;
==	==	==	==	==	==
*-	*-	*-	*-	*-	*-
!!!CDT: 1685/3//-1750/7/28
!!!OCY: Deutschland
!!!AGN: chorale
!!!AST: Baroque
!!!AIN: vox
!!!YOY: 1941
!!!PPP: New York; London
!!!PPR: G. Schirmer
!!!ENC: David Huron
!!!EED: David Huron
!!!YEN: United States of America
!!!YER: 1992
!!!YEC: Copyright 1992 David Huron
!!!YEM: Rights to all derivative electronic formats reserved.
!!!YER: March 20, 1996
!!!AMT: simple quadruple
!!!EEV: 1.1
!!chor2scor: -l 2 -s 0.6 -o %b.pmx
